X:1
T:Title
%%score { ( 1 3 5 ) | ( 2 4 ) }
L:1/8
M:6/8
K:C
V:1 treble nm="Grand Piano"
V:3 treble 
V:5 treble 
V:2 bass 
V:4 bass 
V:1
 z3 z2[Q:1/4=100] [EG] | [EG]2 [CE] [CE]2 [DF] | [EG] [Ec]2- [Ec]2 [Ec] | c2 B c2 A | %4
 [EG]3- [EG]2 [EG] | [B,DG]2 [B,D] [B,D]2 [CE] | [DF] [DB]2- [DB]2 [FA] | %7
 [B,FA]2 [B,D] [B,D]2 [B,_E] |[M:5/8] [CE]-[CE]- [CE]3 |[M:1/8] [EG] | %10
[M:3/4] [EG]2 [CE] [CE]2 [DF] | [EG][Ge]- [Ge]3 [Ge] | d2 c c2 A | [EG]4- [EG][EG] | F2 F F2 G | %15
 A[Fd]- [Fd]3 [Ec] | [DB]2 [B,DG] [DFA]2 [DFB] |[M:5/8] [CEc]-[CEc]- [CEc]3 |[M:1/8] G | %19
[M:3/4] e4 z2 | G4 z2 | B2 F F2 F | F4- FF | d6 | A4 z2 | B2 E E2 E |[M:5/8] E-E- E3 | %27
[M:1/8] [EG] |[M:3/4] [EG]2 [CE] [CE]2 [DF] | [EG][Ge]- [Ge]3 [Ge] | d2 c c2 A | [EG]4- [EG][EG] | %32
 F2 F F2 G | A[Fd]- [Fd]3 [Ec] | [DB]2 [B,DG] [DFA]2 [DFB] | %35
[M:13/8] [CEc]-[CEc]- [CEc]3 z z z z z z z2 |] %36
V:2
 z3 z2 [C,C] | [C,C]2 [C,G,] [C,G,]2 [C,C] | [C,C] [C,G,]2- [C,G,]2 [C,G,] | %3
 [F,A,F]2 [F,^G,F] [F,A,F]2 [F,CF] | [C,C]3- [C,C]2 [C,C] | G,,2 [G,,G,] [G,,G,]2 [G,,G,] | %6
 [G,,G,] [G,,G,]2- [G,,G,]2 [G,,G,] | G,,2 [G,,G,] [G,,G,]2 [G,,G,] | %8
[M:5/8] [C,G,]-[C,G,]- [C,G,]3 |[M:1/8] [C,C] |[M:3/4] [C,C]2 [C,G,] [C,G,]2 [C,C] | %11
 [C,C][C,C]- [C,C]3 [C,C] | [F,A,F]2 [F,A,F] [F,A,F]2 [F,CF] | [C,C]4- [C,C][C,C] | %14
 [F,A,D]2 [F,A,D] [F,A,D]2 [E,G,^C] | [D,F,D][D,A,]- [D,A,]3 [^F,A,] | G,2 G, G,,2 G,, | %17
[M:5/8] C,-C,- C,3 |[M:1/8] z |[M:3/4] z2 .[C,C]2 F[C,C] | [C,C]2 [C,C] [C,G,]2 [C,G,] | %21
 [D,G,D]2 [D,G,B,] [D,G,B,]2 [D,G,B,] | [D,G,B,]6 | z2 [D,A,] [D,A,]2 [D,A,] | %24
 [D,D]2 [D,D] [D,D]2 [D,A,] | [E,^G,E]2 [E,G,B,] [E,G,B,]2 [E,G,B,] | %26
[M:5/8] [E,G,B,]-[E,G,B,]- [E,G,B,]3 |[M:1/8] [C,C] |[M:3/4] [C,C]2 [C,G,] [C,G,]2 [C,C] | %29
 [C,C][C,C]- [C,C]3 [C,C] | [F,A,F]2 [F,A,F] [F,A,F]2 [F,CF] | [C,C]4- [C,C][C,C] | %32
 [F,A,D]2 [F,A,D] [F,A,D]2 [E,G,^C] | [D,F,D][D,A,]- [D,A,]3 [^F,A,] | G,2 G, G,,2 G,, | %35
[M:13/8] C,-C,- C,3 z z z z z z z2 |] %36
V:3
 x6 | x6 | x6 | x6 | x6 | x6 | x6 | x6 |[M:5/8] x5 |[M:1/8] x |[M:3/4] x6 | x6 | x6 | x6 | x6 | %15
 x6 | x6 |[M:5/8] x5 |[M:1/8] x |[M:3/4] z2 GG d[Ec] | E2 EE E[Ec] | x6 | x6 | z2 F F2 [Fc] | %24
 F2 .F2 B[Fc] | x6 |[M:5/8] x5 |[M:1/8] x |[M:3/4] x6 | x6 | x6 | x6 | x6 | x6 | x6 | %35
[M:13/8] x13 |] %36
V:4
 x6 | x6 | x6 | x6 | x6 | x6 | x6 | x6 |[M:5/8] x5 |[M:1/8] x |[M:3/4] x6 | x6 | x6 | x6 | x6 | %15
 x6 | x6 |[M:5/8] x5 |[M:1/8] x |[M:3/4] z2 z .[C,C]3 | x6 | x6 | x6 | x6 | x6 | x6 |[M:5/8] x5 | %27
[M:1/8] x |[M:3/4] x6 | x6 | x6 | x6 | x6 | x6 | x6 |[M:13/8] x13 |] %36
V:5
 x6 | x6 | x6 | x6 | x6 | x6 | x6 | x6 |[M:5/8] x5 |[M:1/8] x |[M:3/4] x6 | x6 | x6 | x6 | x6 | %15
 x6 | x6 |[M:5/8] x5 |[M:1/8] x |[M:3/4] x6 | x6 | x6 | x6 | x6 | z2 z .F3 | x6 |[M:5/8] x5 | %27
[M:1/8] x |[M:3/4] x6 | x6 | x6 | x6 | x6 | x6 | x6 |[M:13/8] x13 |] %36

